usr/share/icons/elementaryXubuntu/mimes/16/application-x-cd-image.svg

<?xml version="1.0" encoding="UTF-8" standalone="no"?>
<!-- Created with Inkscape (http://www.inkscape.org/) -->

<svg
   xmlns:svg="http://www.w3.org/2000/svg"
   xmlns="http://www.w3.org/2000/svg"
   xmlns:xlink="http://www.w3.org/1999/xlink"
   version="1.1"
   width="16"
   height="16"
   id="svg3303">
  <defs
     id="defs3305">
    <linearGradient
       id="linearGradient6028">
      <stop
         id="stop6030"
         style="stop-color:#ffffff;stop-opacity:1"
         offset="0" />
      <stop
         id="stop6032"
         style="stop-color:#ffffff;stop-opacity:0"
         offset="1" />
    </linearGradient>
    <linearGradient
       id="linearGradient6036">
      <stop
         id="stop6038"
         style="stop-color:#ffffff;stop-opacity:1"
         offset="0" />
      <stop
         id="stop6040"
         style="stop-color:#ffffff;stop-opacity:0"
         offset="1" />
    </linearGradient>
    <linearGradient
       x1="12.2744"
       y1="32.4165"
       x2="35.391201"
       y2="14.2033"
       id="aigrd2"
       gradientUnits="userSpaceOnUse">
      <stop
         id="stop3043"
         style="stop-color:#fbfbfb;stop-opacity:1"
         offset="0" />
      <stop
         id="stop3045"
         style="stop-color:#b6b6b6;stop-opacity:1"
         offset="0.5" />
      <stop
         id="stop3047"
         style="stop-color:#e4e4e4;stop-opacity:1"
         offset="1" />
    </linearGradient>
    <linearGradient
       x1="14.9966"
       y1="11.1885"
       x2="32.511002"
       y2="34.307499"
       id="aigrd1"
       gradientUnits="userSpaceOnUse">
      <stop
         id="stop3034"
         style="stop-color:#ebebeb;stop-opacity:1"
         offset="0" />
      <stop
         id="stop3036"
         style="stop-color:#ffffff;stop-opacity:1"
         offset="0.5" />
      <stop
         id="stop3038"
         style="stop-color:#ebebeb;stop-opacity:1"
         offset="1" />
    </linearGradient>
    <linearGradient
       id="linearGradient3487">
      <stop
         id="stop3489"
         style="stop-color:#e6cde2;stop-opacity:1"
         offset="0" />
      <stop
         id="stop3491"
         style="stop-color:#e6cde2;stop-opacity:0"
         offset="1" />
    </linearGradient>
    <linearGradient
       id="linearGradient3495">
      <stop
         id="stop3497"
         style="stop-color:#c1cbe4;stop-opacity:1"
         offset="0" />
      <stop
         id="stop3499"
         style="stop-color:#c1cbe4;stop-opacity:0"
         offset="1" />
    </linearGradient>
    <linearGradient
       id="linearGradient3503">
      <stop
         id="stop3505"
         style="stop-color:#c4ebdd;stop-opacity:1"
         offset="0" />
      <stop
         id="stop3507"
         style="stop-color:#c4ebdd;stop-opacity:0"
         offset="1" />
    </linearGradient>
    <linearGradient
       id="linearGradient3511">
      <stop
         id="stop3513"
         style="stop-color:#ebeec7;stop-opacity:1"
         offset="0" />
      <stop
         id="stop3515"
         style="stop-color:#ebeec7;stop-opacity:0"
         offset="1" />
    </linearGradient>
    <linearGradient
       id="linearGradient3519">
      <stop
         id="stop3521"
         style="stop-color:#fcd9cd;stop-opacity:1"
         offset="0" />
      <stop
         id="stop3523"
         style="stop-color:#fcd9cd;stop-opacity:0"
         offset="1" />
    </linearGradient>
    <linearGradient
       x1="20.580074"
       y1="10.774516"
       x2="24.27351"
       y2="9.8622112"
       id="linearGradient3896"
       xlink:href="#linearGradient3487"
       gradientUnits="userSpaceOnUse"
       spreadMethod="reflect" />
    <linearGradient
       x1="17.494959"
       y1="11.200086"
       x2="21.047453"
       y2="9.7956104"
       id="linearGradient3898"
       xlink:href="#linearGradient3495"
       gradientUnits="userSpaceOnUse"
       spreadMethod="reflect" />
    <linearGradient
       x1="14.084608"
       y1="13.045606"
       x2="16.994024"
       y2="10.732353"
       id="linearGradient3900"
       xlink:href="#linearGradient3503"
       gradientUnits="userSpaceOnUse"
       spreadMethod="reflect" />
    <linearGradient
       x1="12.371647"
       y1="16.188046"
       x2="14.609327"
       y2="13.461712"
       id="linearGradient3902"
       xlink:href="#linearGradient3511"
       gradientUnits="userSpaceOnUse"
       spreadMethod="reflect" />
    <linearGradient
       x1="10.609375"
       y1="17.886322"
       x2="9.7297754"
       y2="20.612656"
       id="linearGradient3904"
       xlink:href="#linearGradient3519"
       gradientUnits="userSpaceOnUse"
       spreadMethod="reflect" />
    <linearGradient
       x1="20.580074"
       y1="10.774516"
       x2="24.27351"
       y2="9.8622112"
       id="linearGradient3906"
       xlink:href="#linearGradient3487"
       gradientUnits="userSpaceOnUse"
       spreadMethod="reflect" />
    <linearGradient
       x1="17.494959"
       y1="11.200086"
       x2="21.047453"
       y2="9.7956104"
       id="linearGradient3908"
       xlink:href="#linearGradient3495"
       gradientUnits="userSpaceOnUse"
       spreadMethod="reflect" />
    <linearGradient
       x1="14.084608"
       y1="13.045606"
       x2="16.994024"
       y2="10.732353"
       id="linearGradient3910"
       xlink:href="#linearGradient3503"
       gradientUnits="userSpaceOnUse"
       spreadMethod="reflect" />
    <linearGradient
       x1="12.371647"
       y1="16.188046"
       x2="14.609327"
       y2="13.461712"
       id="linearGradient3912"
       xlink:href="#linearGradient3511"
       gradientUnits="userSpaceOnUse"
       spreadMethod="reflect" />
    <linearGradient
       x1="10.609375"
       y1="17.886322"
       x2="9.7297754"
       y2="20.612656"
       id="linearGradient3914"
       xlink:href="#linearGradient3519"
       gradientUnits="userSpaceOnUse"
       spreadMethod="reflect" />
    <linearGradient
       x1="14.9966"
       y1="11.1885"
       x2="32.511002"
       y2="34.307499"
       id="linearGradient3918"
       xlink:href="#aigrd1"
       gradientUnits="userSpaceOnUse"
       gradientTransform="matrix(0.3999892,0,0,0.3999891,2.397699,3.7628089)" />
    <linearGradient
       x1="12.2744"
       y1="32.4165"
       x2="35.391201"
       y2="14.2033"
       id="linearGradient3920"
       xlink:href="#aigrd2"
       gradientUnits="userSpaceOnUse"
       gradientTransform="matrix(0.4285714,0,0,0.4285712,1.7147125,3.0995762)" />
    <linearGradient
       x1="10.50172"
       y1="3.6100161"
       x2="48.798885"
       y2="54.698483"
       id="linearGradient3922"
       xlink:href="#linearGradient6036"
       gradientUnits="userSpaceOnUse"
       gradientTransform="matrix(0.328322,0,0,0.3283219,4.0067991,4.7914954)" />
    <linearGradient
       x1="28.702885"
       y1="31.494707"
       x2="17.742729"
       y2="18.366575"
       id="linearGradient3924"
       xlink:href="#linearGradient6028"
       gradientUnits="userSpaceOnUse" />
  </defs>
  <g
     id="layer1">
    <g
       transform="translate(-4.0004258,-4.9995745)"
       id="g3325"
       style="display:inline">
      <path
         d="m 11.997441,6.0027482 c -3.8798961,0 -6.9998116,3.1199161 -6.9998116,6.9998118 0,3.879895 3.1199155,6.99981 6.9998116,6.99981 3.879895,0 6.999809,-3.119915 6.999809,-6.99981 0,-3.8798957 -3.119914,-6.9998118 -6.999809,-6.9998118 l 0,0 z m 0,8.6797658 c -0.919976,0 -1.679956,-0.759979 -1.679956,-1.679954 0,-0.919976 0.75998,-1.679956 1.679956,-1.679956 0.919976,0 1.679955,0.75998 1.679955,1.679956 0,0.919975 -0.759979,1.679954 -1.679955,1.679954 z"
         id="path3040"
         style="fill:url(#linearGradient3918);fill-rule:nonzero;stroke:none" />
      <path
         d="m 12.000426,5.4995761 c -4.1571429,0 -7.4999993,3.342857 -7.4999993,7.4999989 0,4.157142 3.3428564,7.499998 7.4999993,7.499998 4.157142,0 7.499999,-3.342856 7.499999,-7.499998 0,-4.1571419 -3.342857,-7.4999989 -7.499999,-7.4999989 l 0,0 z m 0,9.2999999 c -0.985715,0 -1.8,-0.814286 -1.8,-1.800001 0,-0.985714 0.814285,-1.8 1.8,-1.8 0.985714,0 1.799998,0.814286 1.799998,1.8 0,0.985715 -0.814284,1.800001 -1.799998,1.800001 z"
         id="path3049"
         style="fill:url(#linearGradient3920);fill-rule:nonzero;stroke:#808080;stroke-width:1.00000024;stroke-miterlimit:4;stroke-opacity:1" />
      <path
         d="m 12.00064,9.084399 c -2.1862784,0 -3.9149638,1.779529 -3.9149638,3.914962 0,2.186278 1.7795295,3.914964 3.9149638,3.914964 2.186274,0 3.914962,-1.779529 3.914962,-3.914964 0,-2.186277 -1.779531,-3.914962 -3.914962,-3.914962 l 0,0 z m 0,6.050397 c -1.169405,0 -2.1354343,-0.966031 -2.1354343,-2.135435 0,-1.169403 0.9660293,-2.135433 2.1354343,-2.135433 1.169401,0 2.135431,0.96603 2.135431,2.135433 0,1.169404 -0.96603,2.135435 -2.135431,2.135435 z"
         id="path3051"
         style="opacity:0.51098902;fill:#eeeeec;fill-rule:nonzero;stroke:none" />
      <path
         d="m 12.000453,6.4995459 c -3.6028529,0 -6.4999954,2.8971428 -6.4999954,6.5000001 0,3.602856 2.8971425,6.499997 6.4999954,6.499997 3.602859,0 6.500002,-2.897141 6.500002,-6.499997 0,-3.6028573 -2.897143,-6.5000001 -6.500002,-6.5000001 l 0,0 z"
         id="path5264"
         style="opacity:0.54644811;fill:none;stroke:url(#linearGradient3922);stroke-width:1.00000024;stroke-miterlimit:4;stroke-opacity:1" />
      <path
         d="m 30.405591,24.930641 a 6.098796,6.098796 0 1 1 -12.197592,0 6.098796,6.098796 0 1 1 12.197592,0 z"
         transform="matrix(0.4060353,0,0,0.4060353,2.1478352,2.8832018)"
         id="path6026"
         style="opacity:0.67213111;fill:none;stroke:url(#linearGradient3924);stroke-width:2.29176831;stroke-linecap:butt;stroke-linejoin:miter;stroke-miterlimit:4;stroke-opacity:1;stroke-dashoffset:0;marker:none;visibility:visible;display:inline;overflow:visible" />
    </g>
  </g>
  <g
     transform="matrix(0.34867079,0,0,0.34867079,-0.18696658,-0.4872557)"
     id="g2458">
    <path
       d="M 15.856928,5.7307748 20.625,16.34375 C 21.660403,15.885186 22.795334,15.625 24,15.625 c 0.03206,0 0.06178,-3.6e-4 0.09375,0 L 24.10801,4.0047512 c -2.94215,-0.070687 -5.543041,0.6572865 -8.251083,1.7260236 l 10e-7,0 z"
       transform="matrix(0.9996011,0.02824295,-0.02824295,0.9996011,0.6924114,-0.6708346)"
       id="path2460"
       style="fill:url(#linearGradient3896);fill-opacity:1;fill-rule:nonzero;stroke:none" />
    <path
       d="m 12.121471,7.9060109 6.931026,9.3601041 c 0.913109,-0.669755 1.965938,-1.167064 3.142629,-1.425169 0.03132,-0.0069 0.06026,-0.01359 0.09157,-0.02009 L 19.857174,4.426276 c -2.888973,0.5613244 -5.31953,1.8556038 -7.735703,3.4797349 l 0,0 z"
       id="path2462"
       style="fill:url(#linearGradient3898);fill-opacity:1;fill-rule:nonzero;stroke:none" />
    <path
       d="m 8.2523933,11.646535 9.2137237,7.155818 c 0.70865,-0.883264 1.596891,-1.636119 2.666685,-2.18998 0.02847,-0.01474 0.05469,-0.02872 0.08325,-0.0431 L 14.86585,6.2506132 C 12.220599,7.5405321 10.165881,9.452393 8.2523933,11.646535 z"
       id="path2464"
       style="fill:url(#linearGradient3900);fill-opacity:1;fill-rule:nonzero;stroke:none" />
    <path
       d="m 5.6328855,16.073974 c 7.1748065,2.242248 7.8502625,7.031463 12.7767855,1.754127 L 10.499985,9.1321388 C 8.2787249,11.062747 6.9132871,13.459349 5.6328855,16.073974 z"
       id="path2466"
       style="fill:url(#linearGradient3902);fill-opacity:1;fill-rule:nonzero;stroke:none" />
    <path
       d="M 7.155289,13.193173 C 5.9722117,14.945185 5.2475768,16.829547 4.6301929,18.837116 L 15.96875,21.8125 C 16.184264,21.049497 16.486796,20.297733 16.9375,19.59375 16.95479,19.56675 16.98246,19.52673 17,19.5 L 7.155289,13.193173 z"
       id="path2468"
       style="fill:url(#linearGradient3904);fill-opacity:1;fill-rule:nonzero;stroke:none" />
  </g>
  <g
     transform="matrix(-0.34867079,0,0,-0.34867079,16.549231,16.245746)"
     id="g2472">
    <path
       d="M 15.856928,5.7307748 20.625,16.34375 C 21.660403,15.885186 22.795334,15.625 24,15.625 c 0.03206,0 0.06178,-3.6e-4 0.09375,0 L 24.10801,4.0047512 c -2.94215,-0.070687 -5.543041,0.6572865 -8.251083,1.7260236 l 10e-7,0 z"
       transform="matrix(0.9996011,0.02824295,-0.02824295,0.9996011,0.6924114,-0.6708346)"
       id="path2475"
       style="fill:url(#linearGradient3906);fill-opacity:1;fill-rule:nonzero;stroke:none" />
    <path
       d="m 12.121471,7.9060109 6.931026,9.3601041 c 0.913109,-0.669755 1.965938,-1.167064 3.142629,-1.425169 0.03132,-0.0069 0.06026,-0.01359 0.09157,-0.02009 L 19.857174,4.426276 c -2.888973,0.5613244 -5.31953,1.8556038 -7.735703,3.4797349 l 0,0 z"
       id="path2477"
       style="fill:url(#linearGradient3908);fill-opacity:1;fill-rule:nonzero;stroke:none" />
    <path
       d="m 8.2523933,11.646535 9.2137237,7.155818 c 0.70865,-0.883264 1.596891,-1.636119 2.666685,-2.18998 0.02847,-0.01474 0.05469,-0.02872 0.08325,-0.0431 L 14.86585,6.2506132 C 12.220599,7.5405321 10.165881,9.452393 8.2523933,11.646535 z"
       id="path2479"
       style="fill:url(#linearGradient3910);fill-opacity:1;fill-rule:nonzero;stroke:none" />
    <path
       d="m 5.6328855,16.073974 c 7.1748065,2.242248 7.8502625,7.031463 12.7767855,1.754127 L 10.499985,9.1321388 C 8.2787249,11.062747 6.9132871,13.459349 5.6328855,16.073974 z"
       id="path2481"
       style="fill:url(#linearGradient3912);fill-opacity:1;fill-rule:nonzero;stroke:none" />
    <path
       d="M 7.155289,13.193173 C 5.9722117,14.945185 5.2475768,16.829547 4.6301929,18.837116 L 15.96875,21.8125 C 16.184264,21.049497 16.486796,20.297733 16.9375,19.59375 16.95479,19.56675 16.98246,19.52673 17,19.5 L 7.155289,13.193173 z"
       id="path2483"
       style="fill:url(#linearGradient3914);fill-opacity:1;fill-rule:nonzero;stroke:none" />
  </g>
</svg>

<?xml version="1.0" encoding="UTF-8" standalone="no"?>
<!-- Created with Inkscape (http://www.inkscape.org/) -->
<svg
   xmlns:dc="http://purl.org/dc/elements/1.1/"
   xmlns:cc="http://creativecommons.org/ns#"
   xmlns:rdf="http://www.w3.org/1999/02/22-rdf-syntax-ns#"
   xmlns:svg="http://www.w3.org/2000/svg"
   xmlns="http://www.w3.org/2000/svg"
   xmlns:xlink="http://www.w3.org/1999/xlink"
   xmlns:sodipodi="http://sodipodi.sourceforge.net/DTD/sodipodi-0.dtd"
   xmlns:inkscape="http://www.inkscape.org/namespaces/inkscape"
   width="16px"
   height="16px"
   id="svg3303"
   sodipodi:version="0.32"
   inkscape:version="0.46"
   sodipodi:docname="application-x-cd-image.svg"
   inkscape:output_extension="org.inkscape.output.svg.inkscape">
  <defs
     id="defs3305">
    <linearGradient
       id="linearGradient6028"
       inkscape:collect="always">
      <stop
         id="stop6030"
         offset="0"
         style="stop-color:#ffffff;stop-opacity:1;" />
      <stop
         id="stop6032"
         offset="1"
         style="stop-color:#ffffff;stop-opacity:0;" />
    </linearGradient>
    <linearGradient
       inkscape:collect="always"
       xlink:href="#linearGradient6028"
       id="linearGradient3341"
       gradientUnits="userSpaceOnUse"
       x1="28.702885"
       y1="31.494707"
       x2="17.742729"
       y2="18.366575" />
    <linearGradient
       id="linearGradient6036"
       inkscape:collect="always">
      <stop
         id="stop6038"
         offset="0"
         style="stop-color:#ffffff;stop-opacity:1;" />
      <stop
         id="stop6040"
         offset="1"
         style="stop-color:#ffffff;stop-opacity:0;" />
    </linearGradient>
    <linearGradient
       inkscape:collect="always"
       xlink:href="#linearGradient6036"
       id="linearGradient3339"
       gradientUnits="userSpaceOnUse"
       gradientTransform="matrix(0.328322,0,0,0.3283219,4.0067991,4.7914954)"
       x1="10.50172"
       y1="3.6100161"
       x2="48.798885"
       y2="54.698483" />
    <linearGradient
       inkscape:collect="always"
       id="linearGradient10997">
      <stop
         style="stop-color:#ffffff;stop-opacity:1;"
         offset="0"
         id="stop10999" />
      <stop
         style="stop-color:#ffffff;stop-opacity:0;"
         offset="1"
         id="stop11001" />
    </linearGradient>
    <linearGradient
       inkscape:collect="always"
       xlink:href="#linearGradient10997"
       id="linearGradient3337"
       gradientUnits="userSpaceOnUse"
       gradientTransform="matrix(0.3383777,0,0,0.3383777,3.9445106,4.847368)"
       x1="25.985928"
       y1="24.919628"
       x2="15.889072"
       y2="11.669628" />
    <linearGradient
       y2="14.2033"
       x2="35.391201"
       y1="32.4165"
       x1="12.2744"
       gradientUnits="userSpaceOnUse"
       id="aigrd2">
      <stop
         id="stop3043"
         style="stop-color:#FBFBFB"
         offset="0" />
      <stop
         id="stop3045"
         style="stop-color:#B6B6B6"
         offset="0.5" />
      <stop
         id="stop3047"
         style="stop-color:#E4E4E4"
         offset="1" />
    </linearGradient>
    <linearGradient
       inkscape:collect="always"
       xlink:href="#aigrd2"
       id="linearGradient3335"
       gradientUnits="userSpaceOnUse"
       gradientTransform="matrix(0.4285714,0,0,0.4285712,1.7147125,3.0995762)"
       x1="12.2744"
       y1="32.4165"
       x2="35.391201"
       y2="14.2033" />
    <linearGradient
       y2="34.307499"
       x2="32.511002"
       y1="11.1885"
       x1="14.9966"
       gradientUnits="userSpaceOnUse"
       id="aigrd1">
      <stop
         id="stop3034"
         style="stop-color:#EBEBEB"
         offset="0" />
      <stop
         id="stop3036"
         style="stop-color:#FFFFFF"
         offset="0.5" />
      <stop
         id="stop3038"
         style="stop-color:#EBEBEB"
         offset="1" />
    </linearGradient>
    <linearGradient
       inkscape:collect="always"
       xlink:href="#aigrd1"
       id="linearGradient3333"
       gradientUnits="userSpaceOnUse"
       gradientTransform="matrix(0.3999892,0,0,0.3999891,2.397699,3.7628089)"
       x1="14.9966"
       y1="11.1885"
       x2="32.511002"
       y2="34.307499" />
    <inkscape:perspective
       sodipodi:type="inkscape:persp3d"
       inkscape:vp_x="0 : 8 : 1"
       inkscape:vp_y="0 : 1000 : 0"
       inkscape:vp_z="16 : 8 : 1"
       inkscape:persp3d-origin="8 : 5.3333333 : 1"
       id="perspective3311" />
  </defs>
  <sodipodi:namedview
     id="base"
     pagecolor="#ffffff"
     bordercolor="#666666"
     borderopacity="1.0"
     inkscape:pageopacity="0.0"
     inkscape:pageshadow="2"
     inkscape:zoom="22.197802"
     inkscape:cx="8"
     inkscape:cy="8"
     inkscape:current-layer="layer1"
     showgrid="true"
     inkscape:grid-bbox="true"
     inkscape:document-units="px"
     inkscape:window-width="640"
     inkscape:window-height="679"
     inkscape:window-x="798"
     inkscape:window-y="132" />
  <metadata
     id="metadata3308">
    <rdf:RDF>
      <cc:Work
         rdf:about="">
        <dc:format>image/svg+xml</dc:format>
        <dc:type
           rdf:resource="http://purl.org/dc/dcmitype/StillImage" />
      </cc:Work>
    </rdf:RDF>
  </metadata>
  <g
     id="layer1"
     inkscape:label="Layer 1"
     inkscape:groupmode="layer">
    <g
       style="display:inline"
       id="g3325"
       transform="translate(-4.0004258,-4.9995745)">
      <path
         style="fill:url(#linearGradient3333);fill-rule:nonzero;stroke:none;stroke-miterlimit:4"
         d="M 11.997441,6.0027482 C 8.1175449,6.0027482 4.9976294,9.1226643 4.9976294,13.00256 C 4.9976294,16.882455 8.1175449,20.00237 11.997441,20.00237 C 15.877336,20.00237 18.99725,16.882455 18.99725,13.00256 C 18.99725,9.1226643 15.877336,6.0027482 11.997441,6.0027482 L 11.997441,6.0027482 z M 11.997441,14.682514 C 11.077465,14.682514 10.317485,13.922535 10.317485,13.00256 C 10.317485,12.082584 11.077465,11.322604 11.997441,11.322604 C 12.917417,11.322604 13.677396,12.082584 13.677396,13.00256 C 13.677396,13.922535 12.917417,14.682514 11.997441,14.682514 z"
         id="path3040"
         inkscape:r_cx="true"
         inkscape:r_cy="true" />
      <path
         style="fill:url(#linearGradient3335);fill-rule:nonzero;stroke:#808080;stroke-width:1.00000024;stroke-miterlimit:4;stroke-opacity:1"
         d="M 12.000426,5.4995761 C 7.8432831,5.4995761 4.5004267,8.8424331 4.5004267,12.999575 C 4.5004267,17.156717 7.8432831,20.499573 12.000426,20.499573 C 16.157568,20.499573 19.500425,17.156717 19.500425,12.999575 C 19.500425,8.8424331 16.157568,5.4995761 12.000426,5.4995761 L 12.000426,5.4995761 z M 12.000426,14.799576 C 11.014711,14.799576 10.200426,13.98529 10.200426,12.999575 C 10.200426,12.013861 11.014711,11.199575 12.000426,11.199575 C 12.98614,11.199575 13.800424,12.013861 13.800424,12.999575 C 13.800424,13.98529 12.98614,14.799576 12.000426,14.799576 z"
         id="path3049"
         inkscape:r_cx="true"
         inkscape:r_cy="true" />
      <path
         sodipodi:nodetypes="csccssccsc"
         id="path3531"
         d="M 11.696924,6.1373771 C 8.0554094,6.274728 5.1663681,9.2563239 5.1663681,12.932825 C 5.1663681,14.599506 5.7575553,16.114383 6.7455203,17.293322 L 10.363842,14.22392 C 10.119757,13.938554 9.9800971,13.417726 9.9800971,13.017419 C 9.9800971,11.870187 10.903356,10.932587 12.007512,10.932587 C 12.50964,10.932587 13.242526,11.217878 13.542795,11.580911 L 17.188301,8.5825157 C 15.944702,7.0854804 14.060243,6.1373771 11.951627,6.1373771 C 11.863392,6.1373771 11.784321,6.1340804 11.696924,6.1373771 z"
         style="fill:url(#linearGradient3337);fill-opacity:1;fill-rule:nonzero;stroke:none;stroke-miterlimit:4;stroke-opacity:1" />
      <path
         style="opacity:0.51098902;fill:#eeeeec;fill-rule:nonzero;stroke:none;stroke-miterlimit:4"
         d="M 12.00064,9.084399 C 9.8143616,9.084399 8.0856762,10.863928 8.0856762,12.999361 C 8.0856762,15.185639 9.8652057,16.914325 12.00064,16.914325 C 14.186914,16.914325 15.915602,15.134796 15.915602,12.999361 C 15.915602,10.813084 14.136071,9.084399 12.00064,9.084399 L 12.00064,9.084399 z M 12.00064,15.134796 C 10.831235,15.134796 9.8652057,14.168765 9.8652057,12.999361 C 9.8652057,11.829958 10.831235,10.863928 12.00064,10.863928 C 13.170041,10.863928 14.136071,11.829958 14.136071,12.999361 C 14.136071,14.168765 13.170041,15.134796 12.00064,15.134796 z"
         id="path3051"
         inkscape:r_cx="true"
         inkscape:r_cy="true" />
      <path
         sodipodi:nodetypes="cccccc"
         id="path5264"
         d="M 12.000453,6.4995459 C 8.3976001,6.4995459 5.5004576,9.3966887 5.5004576,12.999546 C 5.5004576,16.602402 8.3976001,19.499543 12.000453,19.499543 C 15.603312,19.499543 18.500455,16.602402 18.500455,12.999546 C 18.500455,9.3966887 15.603312,6.4995459 12.000453,6.4995459 L 12.000453,6.4995459 z"
         style="opacity:0.54644811;fill:none;fill-rule:nonzero;stroke:url(#linearGradient3339);stroke-width:1.00000024;stroke-miterlimit:4;stroke-opacity:1"
         inkscape:r_cx="true"
         inkscape:r_cy="true" />
      <path
         transform="matrix(0.4060353,0,0,0.4060353,2.1478352,2.8832018)"
         d="M 30.405591,24.930641 A 6.0987959,6.0987959 0 1 1 18.207999,24.930641 A 6.0987959,6.0987959 0 1 1 30.405591,24.930641 z"
         sodipodi:ry="6.0987959"
         sodipodi:rx="6.0987959"
         sodipodi:cy="24.930641"
         sodipodi:cx="24.306795"
         id="path6026"
         style="opacity:0.67213111;fill:none;fill-opacity:0.31638417;fill-rule:nonzero;stroke:url(#linearGradient3341);stroke-width:2.29176831;stroke-linecap:butt;stroke-linejoin:miter;marker:none;marker-start:none;marker-mid:none;marker-end:none;stroke-miterlimit:4;stroke-dashoffset:0;stroke-opacity:1;visibility:visible;display:inline;overflow:visible"
         sodipodi:type="arc"
         inkscape:r_cx="true"
         inkscape:r_cy="true" />
    </g>
  </g>
</svg>
